X:11499
T:Mueira d'Ibias (MQ 090)
R:Mueira
C:Tradicional
S:Msica Tradicional Asturiana, (C) Tello & Tito. Asturies, 2001.
S:http://pagina.de/MusTradAst <telloytito@asturies.org>
N:Mueira que se toca por la zona occidental de Asturias.
N:Es de posible origen gallego.
O:Ibias
A:Asturies
Z:Manolo Quirs 090
M:6/8
L:1/8
Q:3/8=120
K:F
C=B,C
|: FEF GAB|c3 FGF|EDc BAG|AGF C=B,C|
FEF GAB|c3 FGF|EDc BAG|[1 F3 C=B,C :|[2 F3 cdc|
|=BcB GA_B|AGF FEF|FEF FEF|AGF cdc|
=BcB GA_B|AGF FEF|GAB cdc|AGF cdc|
=BcB GA_B|AGF FEF|GAB GEG|F3 CDE|
[K:C]
|EDE EDE|EDC cBA|GAG FED|EDC CDE|
EDE EDE|EDC cBA|GAG FED|C3 CDE||
